X:167
T:Hey ?? RHu.163
S:R.Hughes MS,1823,Whitchurch,Shrops.
A:Whitchurch, Shropshire
Z:Tony Weatherall 2006
M:C
L:1/8
Q:1/2=60
R:Air
K:G
d2d>Bd2g2|{f}e2ed efga|{ga}b2 {b}a>g g>ab>a|g<e ed d4|!
d2d>B d>eg2|e2ed efga|b/g/ ((3d’/c’/b/) a/g/ ga c’/b/a/g/|g<e ef/g/ d4||!
b2b>a b2d’2|a2a>g a2bc’|d'<b a>g g>ab>a|g<e e>d d4|!
b2b>a b>c’ e'<d’|a2ag a>bc’e’|e’/d’/c’/b/ a>g g>a ba/g/|g<e e2d4|]

